svgs/regular/grid-4.svg

<svg xmlns="http://www.w3.org/2000/svg" viewBox="0 0 448 512"><!--! Font Awesome Pro 6.3.0 by @fontawesome - https://fontawesome.com License - https://fontawesome.com/license (Commercial License) Copyright 2023 Fonticons, Inc. --><path d="M32 89.6H57.6V64H32V89.6zm57.6 16c0 6.3-3.7 11.8-9 14.4c-2.1 1-4.5 1.6-7 1.6H16c-2.5 0-4.9-.6-7-1.6c-5.3-2.6-9-8.1-9-14.4V48c0-8.8 7.2-16 16-16H73.6c8.8 0 16 7.2 16 16v57.6zm-16 45.9c2.5 0 4.9 .6 7 1.6c5.3 2.6 9 8.1 9 14.4v57.6c0 6.3-3.7 11.8-9 14.4c-2.1 1-4.5 1.6-7 1.6H16c-2.5 0-4.9-.6-7-1.6c-5.3-2.6-9-8.1-9-14.4V167.5c0-6.3 3.7-11.8 9-14.4c2.1-1 4.5-1.6 7-1.6H73.6zm0 119.5c2.5 0 4.9 .6 7 1.6c5.3 2.6 9 8.1 9 14.4v57.6c0 6.3-3.7 11.8-9 14.4c-2.1 1-4.5 1.6-7 1.6H16c-2.5 0-4.9-.6-7-1.6c-5.3-2.6-9-8.1-9-14.4V286.9c0-6.3 3.7-11.8 9-14.4c2.1-1 4.5-1.6 7-1.6H73.6zM16 390.4H73.6c2.5 0 4.9 .6 7 1.6c5.3 2.6 9 8.1 9 14.4V464c0 8.8-7.2 16-16 16H16c-8.8 0-16-7.2-16-16V406.4c0-6.3 3.7-11.8 9-14.4c2.1-1 4.5-1.6 7-1.6zM32 209.1H57.6V183.5H32v25.6zm0 119.5H57.6V302.9H32v25.6zM32 448H57.6V422.4H32V448zM151.5 89.6h25.6V64H151.5V89.6zm57.6 16c0 6.3-3.7 11.8-9 14.4c-2.1 1-4.5 1.6-7 1.6h0H135.5c-2.5 0-4.9-.6-7-1.6c-5.3-2.6-9-8.1-9-14.4V48c0-8.8 7.2-16 16-16h57.6c8.8 0 16 7.2 16 16v57.6zm-16 45.9c2.5 0 4.9 .6 7 1.6c5.3 2.6 9 8.1 9 14.4v57.6c0 6.3-3.7 11.8-9 14.4c-2.1 1-4.5 1.6-7 1.6H135.5c-2.5 0-4.9-.6-7-1.6c-5.3-2.6-9-8.1-9-14.4V167.5c0-6.3 3.7-11.8 9-14.4c2.1-1 4.5-1.6 7-1.6h57.6 0zm0 119.5c2.5 0 4.9 .6 7 1.6c5.3 2.6 9 8.1 9 14.4v57.6c0 6.3-3.7 11.8-9 14.4c-2.1 1-4.5 1.6-7 1.6H135.5c-2.5 0-4.9-.6-7-1.6c-5.3-2.6-9-8.1-9-14.4V286.9c0-6.3 3.7-11.8 9-14.4c2.1-1 4.5-1.6 7-1.6h57.6zM135.5 390.4h57.6c2.5 0 4.9 .6 7 1.6c5.3 2.6 9 8.1 9 14.4V464c0 8.8-7.2 16-16 16H135.5c-8.8 0-16-7.2-16-16V406.4c0-6.3 3.7-11.8 9-14.4c2.1-1 4.5-1.6 7-1.6zm16-181.3h25.6V183.5H151.5v25.6zm0 119.5h25.6V302.9H151.5v25.6zm0 119.5h25.6V422.4H151.5V448zM270.9 64V89.6h25.6V64H270.9zm48.6 56c-2.1 1-4.5 1.6-7 1.6h0H254.9h0c-2.5 0-4.9-.6-7-1.6c-5.3-2.6-9-8.1-9-14.4V48c0-8.8 7.2-16 16-16h57.6c8.8 0 16 7.2 16 16v57.6c0 6.3-3.7 11.8-9 14.4zm0 33.1c5.3 2.6 9 8.1 9 14.4v57.6c0 6.3-3.7 11.8-9 14.4c-2.1 1-4.5 1.6-7 1.6H254.9c-2.5 0-4.9-.6-7-1.6c-5.3-2.6-9-8.1-9-14.4V167.5c0-6.3 3.7-11.8 9-14.4c2.1-1 4.5-1.6 7-1.6h0 57.6 0c2.5 0 4.9 .6 7 1.6zm0 119.5c5.3 2.6 9 8.1 9 14.4v57.6c0 6.3-3.7 11.8-9 14.4c-2.1 1-4.5 1.6-7 1.6H254.9c-2.5 0-4.9-.6-7-1.6c-5.3-2.6-9-8.1-9-14.4V286.9c0-6.3 3.7-11.8 9-14.4c2.1-1 4.5-1.6 7-1.6h57.6c2.5 0 4.9 .6 7 1.6zm-7 117.8c2.5 0 4.9 .6 7 1.6c5.3 2.6 9 8.1 9 14.4V464c0 8.8-7.2 16-16 16H254.9c-8.8 0-16-7.2-16-16V406.4c0-6.3 3.7-11.8 9-14.4c2.1-1 4.5-1.6 7-1.6h57.6zM270.9 183.5v25.6h25.6V183.5H270.9zm0 119.5v25.6h25.6V302.9H270.9zm0 119.5V448h25.6V422.4H270.9zM390.4 89.6H416V64H390.4V89.6zm57.6 16c0 6.3-3.7 11.8-9 14.4c-2.1 1-4.5 1.6-7 1.6h0H374.4h0c-2.5 0-4.9-.6-7-1.6c-5.3-2.6-9-8.1-9-14.4V48c0-8.8 7.2-16 16-16H432c8.8 0 16 7.2 16 16v57.6zm-16 45.9c2.5 0 4.9 .6 7 1.6c5.3 2.6 9 8.1 9 14.4v57.6c0 6.3-3.7 11.8-9 14.4c-2.1 1-4.5 1.6-7 1.6H374.4c-2.5 0-4.9-.6-7-1.6c-5.3-2.6-9-8.1-9-14.4V167.5c0-6.3 3.7-11.8 9-14.4c2.1-1 4.5-1.6 7-1.6h0H432h0zm0 119.5c2.5 0 4.9 .6 7 1.6c5.3 2.6 9 8.1 9 14.4v57.6c0 6.3-3.7 11.8-9 14.4c-2.1 1-4.5 1.6-7 1.6H374.4c-2.5 0-4.9-.6-7-1.6c-5.3-2.6-9-8.1-9-14.4V286.9c0-6.3 3.7-11.8 9-14.4c2.1-1 4.5-1.6 7-1.6H432zM374.4 390.4H432c2.5 0 4.9 .6 7 1.6c5.3 2.6 9 8.1 9 14.4V464c0 8.8-7.2 16-16 16H374.4c-8.8 0-16-7.2-16-16V406.4c0-6.3 3.7-11.8 9-14.4c2.1-1 4.5-1.6 7-1.6zm16-181.3H416V183.5H390.4v25.6zm0 119.5H416V302.9H390.4v25.6zm0 119.5H416V422.4H390.4V448z"/></svg>

<svg xmlns="http://www.w3.org/2000/svg" viewBox="0 0 448 512"><!--! Font Awesome Pro 6.2.0 by @fontawesome - https://fontawesome.com License - https://fontawesome.com/license (Commercial License) Copyright 2022 Fonticons, Inc. --><path d="M89.6 105.6C89.6 111.9 85.94 117.4 80.63 119.1C78.51 121 76.12 121.6 73.6 121.6H16C13.48 121.6 11.09 121 8.972 119.1C3.659 117.4 0 111.9 0 105.6V48C0 39.16 7.164 32 16 32H73.6C82.44 32 89.6 39.16 89.6 48V105.6zM57.6 89.6V64H32V89.6H57.6zM73.6 151.5C76.12 151.5 78.51 152 80.63 153.1C85.94 155.7 89.6 161.2 89.6 167.5V225.1C89.6 231.4 85.94 236.8 80.63 239.4C78.51 240.5 76.12 241.1 73.6 241.1H16C13.48 241.1 11.09 240.5 8.972 239.4C3.659 236.8 0 231.4 0 225.1V167.5C0 161.2 3.659 155.7 8.972 153.1C11.09 152 13.48 151.5 16 151.5H73.6zM57.6 209.1V183.5H32V209.1H57.6zM73.6 270.9C76.12 270.9 78.51 271.5 80.63 272.6C85.94 275.2 89.6 280.6 89.6 286.9V344.5C89.6 350.8 85.94 356.3 80.63 358.9C78.51 359.9 76.12 360.5 73.6 360.5H16C13.48 360.5 11.09 359.9 8.972 358.9C3.659 356.3 0 350.8 0 344.5V286.9C0 280.6 3.659 275.2 8.972 272.6C11.09 271.5 13.48 270.9 16 270.9H73.6zM57.6 328.5V302.9H32V328.5H57.6zM16 390.4H73.6C76.12 390.4 78.51 390.1 80.63 392C85.94 394.6 89.6 400.1 89.6 406.4V464C89.6 472.8 82.44 480 73.6 480H16C7.164 480 0 472.8 0 464V406.4C0 400.1 3.659 394.6 8.972 392C11.09 390.1 13.48 390.4 16 390.4zM57.6 448V422.4H32V448H57.6zM209.1 105.6C209.1 111.9 205.4 117.4 200.1 119.1C197.1 121 195.6 121.6 193.1 121.6H135.5C132.9 121.6 130.6 121 128.4 119.1C123.1 117.4 119.5 111.9 119.5 105.6V48C119.5 39.16 126.6 32 135.5 32H193.1C201.9 32 209.1 39.16 209.1 48V105.6zM177.1 89.6V64H151.5V89.6H177.1zM193.1 151.5C195.6 151.5 197.1 152 200.1 153.1C205.4 155.7 209.1 161.2 209.1 167.5V225.1C209.1 231.4 205.4 236.8 200.1 239.4C197.1 240.5 195.6 241.1 193.1 241.1H135.5C132.9 241.1 130.6 240.5 128.4 239.4C123.1 236.8 119.5 231.4 119.5 225.1V167.5C119.5 161.2 123.1 155.7 128.4 153.1C130.6 152 132.9 151.5 135.5 151.5H193.1zM177.1 209.1V183.5H151.5V209.1H177.1zM193.1 270.9C195.6 270.9 197.1 271.5 200.1 272.6C205.4 275.2 209.1 280.6 209.1 286.9V344.5C209.1 350.8 205.4 356.3 200.1 358.9C197.1 359.9 195.6 360.5 193.1 360.5H135.5C132.9 360.5 130.6 359.9 128.4 358.9C123.1 356.3 119.5 350.8 119.5 344.5V286.9C119.5 280.6 123.1 275.2 128.4 272.6C130.6 271.5 132.9 270.9 135.5 270.9H193.1zM177.1 328.5V302.9H151.5V328.5H177.1zM135.5 390.4H193.1C195.6 390.4 197.1 390.1 200.1 392C205.4 394.6 209.1 400.1 209.1 406.4V464C209.1 472.8 201.9 480 193.1 480H135.5C126.6 480 119.5 472.8 119.5 464V406.4C119.5 400.1 123.1 394.6 128.4 392C130.6 390.1 132.9 390.4 135.5 390.4zM177.1 448V422.4H151.5V448H177.1zM312.5 121.6H254.9C252.4 121.6 250 121 247.9 119.1C242.6 117.4 238.9 111.9 238.9 105.6V48C238.9 39.16 246.1 32 254.9 32H312.5C321.4 32 328.5 39.16 328.5 48V105.6C328.5 111.9 324.9 117.4 319.6 119.1C317.4 121 315.1 121.6 312.5 121.6H312.5zM270.9 64V89.6H296.5V64H270.9zM328.5 167.5V225.1C328.5 231.4 324.9 236.8 319.6 239.4C317.4 240.5 315.1 241.1 312.5 241.1H254.9C252.4 241.1 250 240.5 247.9 239.4C242.6 236.8 238.9 231.4 238.9 225.1V167.5C238.9 161.2 242.6 155.7 247.9 153.1C250 152 252.4 151.5 254.9 151.5H312.5C315.1 151.5 317.4 152 319.6 153.1C324.9 155.7 328.5 161.2 328.5 167.5H328.5zM270.9 183.5V209.1H296.5V183.5H270.9zM328.5 286.9V344.5C328.5 350.8 324.9 356.3 319.6 358.9C317.4 359.9 315.1 360.5 312.5 360.5H254.9C252.4 360.5 250 359.9 247.9 358.9C242.6 356.3 238.9 350.8 238.9 344.5V286.9C238.9 280.6 242.6 275.2 247.9 272.6C250 271.5 252.4 270.9 254.9 270.9H312.5C315.1 270.9 317.4 271.5 319.6 272.6C324.9 275.2 328.5 280.6 328.5 286.9zM270.9 302.9V328.5H296.5V302.9H270.9zM319.6 392C324.9 394.6 328.5 400.1 328.5 406.4V464C328.5 472.8 321.4 480 312.5 480H254.9C246.1 480 238.9 472.8 238.9 464V406.4C238.9 400.1 242.6 394.6 247.9 392C250 390.1 252.4 390.4 254.9 390.4H312.5C315.1 390.4 317.4 390.1 319.6 392zM270.9 422.4V448H296.5V422.4H270.9zM448 105.6C448 111.9 444.3 117.4 439 119.1C436.9 121 434.5 121.6 432 121.6H374.4C371.9 121.6 369.5 121 367.4 119.1C362.1 117.4 358.4 111.9 358.4 105.6V48C358.4 39.16 365.6 32 374.4 32H432C440.8 32 448 39.16 448 48V105.6zM416 89.6V64H390.4V89.6H416zM432 151.5C434.5 151.5 436.9 152 439 153.1C444.3 155.7 448 161.2 448 167.5V225.1C448 231.4 444.3 236.8 439 239.4C436.9 240.5 434.5 241.1 432 241.1H374.4C371.9 241.1 369.5 240.5 367.4 239.4C362.1 236.8 358.4 231.4 358.4 225.1V167.5C358.4 161.2 362.1 155.7 367.4 153.1C369.5 152 371.9 151.5 374.4 151.5H432zM416 209.1V183.5H390.4V209.1H416zM432 270.9C434.5 270.9 436.9 271.5 439 272.6C444.3 275.2 448 280.6 448 286.9V344.5C448 350.8 444.3 356.3 439 358.9C436.9 359.9 434.5 360.5 432 360.5H374.4C371.9 360.5 369.5 359.9 367.4 358.9C362.1 356.3 358.4 350.8 358.4 344.5V286.9C358.4 280.6 362.1 275.2 367.4 272.6C369.5 271.5 371.9 270.9 374.4 270.9H432zM416 328.5V302.9H390.4V328.5H416zM374.4 390.4H432C434.5 390.4 436.9 390.1 439 392C444.3 394.6 448 400.1 448 406.4V464C448 472.8 440.8 480 432 480H374.4C365.6 480 358.4 472.8 358.4 464V406.4C358.4 400.1 362.1 394.6 367.4 392C369.5 390.1 371.9 390.4 374.4 390.4zM416 448V422.4H390.4V448H416z"/></svg>
